img/car2.svg

<svg width="37" height="24" viewBox="0 0 37 24" fill="none" xmlns="http://www.w3.org/2000/svg">
<g clip-path="url(#clip0_1_193)">
<path d="M35.185 14.83C35.0109 14.83 34.844 14.7609 34.7208 14.6379C34.5976 14.5149 34.5283 14.3481 34.528 14.174V13.518H35.841V14.831L35.185 14.83ZM30.859 22.246C30.1936 22.2452 29.5556 21.9805 29.085 21.51C28.6145 21.0394 28.3498 20.4014 28.349 19.736C28.3498 19.0706 28.6145 18.4326 29.085 17.962C29.5556 17.4915 30.1936 17.2268 30.859 17.226C31.5244 17.2268 32.1624 17.4915 32.633 17.962C33.1035 18.4326 33.3682 19.0706 33.369 19.736C33.3682 20.4014 33.1035 21.0394 32.633 21.51C32.1624 21.9805 31.5244 22.2452 30.859 22.246ZM10.467 22.246C9.80155 22.2452 9.16358 21.9805 8.69304 21.51C8.2225 21.0394 7.95779 20.4014 7.957 19.736C7.95779 19.0706 8.2225 18.4326 8.69304 17.962C9.16358 17.4915 9.80155 17.2268 10.467 17.226C11.1325 17.2268 11.7704 17.4915 12.241 17.962C12.7115 18.4326 12.9762 19.0706 12.977 19.736C12.9762 20.4014 12.7115 21.0394 12.241 21.51C11.7704 21.9805 11.1325 22.2452 10.467 22.246ZM27.113 9.897V6.102H32.269L33.217 9.897H27.113ZM27.113 3.631H31.477C32.18 3.631 32.752 4.202 32.752 4.905V4.944H27.112L27.113 3.631ZM34.41 9.922L33.452 6.09C33.5817 6.0621 33.6979 5.99061 33.7812 5.88743C33.8645 5.78425 33.91 5.65563 33.91 5.523V4.905C33.9092 4.25997 33.6526 3.64159 33.1965 3.18549C32.7404 2.72938 32.122 2.47279 31.477 2.472H27.113V1.197C27.113 0.537 26.576 0 25.915 0H3.67C3.01 0 2.473 0.537 2.473 1.197V11.703C2.48168 11.8507 2.54647 11.9895 2.6541 12.0909C2.76173 12.1924 2.90407 12.249 3.052 12.249C3.19993 12.249 3.34227 12.1924 3.4499 12.0909C3.55753 11.9895 3.62232 11.8507 3.631 11.703V1.197C3.631 1.176 3.649 1.159 3.671 1.159H25.916C25.938 1.159 25.955 1.176 25.955 1.197V11.703C25.9612 11.8525 26.025 11.9939 26.133 12.0975C26.241 12.2011 26.3848 12.2589 26.5345 12.2589C26.6842 12.2589 26.828 12.2011 26.936 12.0975C27.044 11.9939 27.1078 11.8525 27.114 11.703V11.046H33.951C34.791 11.046 35.506 11.599 35.751 12.359H33.95C33.7962 12.359 33.6487 12.4201 33.5399 12.5289C33.4311 12.6376 33.37 12.7852 33.37 12.939V14.174C33.37 15.175 34.185 15.99 35.186 15.99H35.842V18.539H34.327C34.0772 17.818 33.6093 17.1927 32.988 16.7497C32.3667 16.3068 31.623 16.0681 30.86 16.067C30.0968 16.0679 29.3529 16.3065 28.7314 16.7494C28.11 17.1924 27.6418 17.8179 27.392 18.539H27.114V14.174C27.114 14.0202 27.0529 13.8726 26.9441 13.7639C26.8354 13.6551 26.6878 13.594 26.534 13.594C26.3802 13.594 26.2326 13.6551 26.1239 13.7639C26.0151 13.8726 25.954 14.0202 25.954 14.174V18.539H13.935C13.6852 17.818 13.2173 17.1927 12.596 16.7497C11.9747 16.3068 11.231 16.0681 10.468 16.067C9.70482 16.0679 8.96087 16.3065 8.33941 16.7494C7.71796 17.1924 7.24982 17.8179 7 18.539H3.67C3.66479 18.539 3.65964 18.538 3.65484 18.5359C3.65004 18.5339 3.6457 18.531 3.64206 18.5272C3.63843 18.5235 3.63558 18.5191 3.63368 18.5142C3.63178 18.5094 3.63087 18.5042 3.631 18.499V17.225H6.141C6.28868 17.2163 6.42745 17.1515 6.52894 17.0439C6.63043 16.9363 6.68696 16.7939 6.68696 16.646C6.68696 16.4981 6.63043 16.3557 6.52894 16.2481C6.42745 16.1405 6.28868 16.0757 6.141 16.067H0.58C0.432323 16.0757 0.293545 16.1405 0.192058 16.2481C0.0905701 16.3557 0.0340443 16.4981 0.0340443 16.646C0.0340443 16.7939 0.0905701 16.9363 0.192058 17.0439C0.293545 17.1515 0.432323 17.2163 0.58 17.225H2.472V18.5C2.472 19.16 3.009 19.697 3.669 19.697H6.8L6.799 19.736C6.80006 20.7088 7.18695 21.6414 7.87479 22.3292C8.56264 23.017 9.49525 23.4039 10.468 23.405C11.4409 23.4039 12.3737 23.0169 13.0616 22.3289C13.7494 21.6408 14.1362 20.7079 14.137 19.735L14.136 19.697H27.19L27.189 19.736C27.1901 20.7088 27.577 21.6414 28.2648 22.3292C28.9526 23.017 29.8852 23.4039 30.858 23.405C31.8309 23.4039 32.7637 23.0169 33.4516 22.3289C34.1394 21.6408 34.5262 20.7079 34.527 19.735L34.526 19.697H36.42C36.74 19.697 36.999 19.437 36.999 19.117V12.938C36.998 12.209 36.7364 11.5044 36.2614 10.9513C35.7865 10.3982 35.1295 10.0332 34.409 9.922H34.41Z" fill="#BB9D60"/>
<path d="M10.467 18.54C9.807 18.54 9.27 19.077 9.27 19.737C9.27 20.397 9.807 20.935 10.467 20.935C11.127 20.935 11.665 20.398 11.665 19.737C11.665 19.077 11.128 18.54 10.467 18.54Z" fill="#BB9D60"/>
<path d="M30.857 18.54C30.197 18.54 29.66 19.077 29.66 19.737C29.66 20.397 30.197 20.935 30.857 20.935C31.517 20.935 32.055 20.398 32.055 19.737C32.055 19.077 31.518 18.54 30.857 18.54Z" fill="#BB9D60"/>
<path d="M24.06 16.07H15.41C15.2605 16.0762 15.1191 16.14 15.0155 16.248C14.9119 16.356 14.8541 16.4999 14.8541 16.6495C14.8541 16.7992 14.9119 16.943 15.0155 17.051C15.1191 17.159 15.2605 17.2228 15.41 17.229H24.06C24.2095 17.2228 24.3509 17.159 24.4545 17.051C24.5581 16.943 24.6159 16.7992 24.6159 16.6495C24.6159 16.4999 24.5581 16.356 24.4545 16.248C24.3509 16.14 24.2095 16.0762 24.06 16.07Z" fill="#BB9D60"/>
<path d="M9.235 13.6H1.819C1.66947 13.6062 1.52813 13.67 1.42453 13.778C1.32093 13.886 1.26308 14.0298 1.26308 14.1795C1.26308 14.3292 1.32093 14.473 1.42453 14.581C1.52813 14.689 1.66947 14.7528 1.819 14.759H9.235C9.38453 14.7528 9.52587 14.689 9.62947 14.581C9.73307 14.473 9.79092 14.3292 9.79092 14.1795C9.79092 14.0298 9.73307 13.886 9.62947 13.778C9.52587 13.67 9.38453 13.6062 9.235 13.6Z" fill="#BB9D60"/>
<path d="M20.15 5.74C20.0413 5.63161 19.894 5.57074 19.7405 5.57074C19.587 5.57074 19.4397 5.63161 19.331 5.74L14.179 10.892L11.499 8.212C11.4461 8.15433 11.3821 8.10796 11.3108 8.07568C11.2396 8.0434 11.1625 8.02588 11.0843 8.02416C11.006 8.02245 10.9283 8.03658 10.8556 8.06571C10.783 8.09484 10.717 8.13836 10.6617 8.19365C10.6063 8.24895 10.5627 8.31487 10.5335 8.38746C10.5043 8.46004 10.4901 8.53779 10.4917 8.61602C10.4933 8.69425 10.5107 8.77134 10.5429 8.84266C10.5751 8.91397 10.6214 8.97804 10.679 9.031L13.769 12.121C13.8227 12.1752 13.8865 12.2182 13.9569 12.2475C14.0273 12.2769 14.1028 12.292 14.179 12.292C14.2552 12.292 14.3307 12.2769 14.4011 12.2475C14.4715 12.2182 14.5353 12.1752 14.589 12.121L20.15 6.559C20.2587 6.45024 20.3198 6.30276 20.3198 6.149C20.3198 5.99523 20.2587 5.84776 20.15 5.739V5.74Z" fill="#BB9D60"/>
</g>
<defs>
<clipPath id="clip0_1_193">
<rect width="37" height="24" fill="white"/>
</clipPath>
</defs>
</svg>

<svg width="37" height="24" fill="none" xmlns="http://www.w3.org/2000/svg"><g clip-path="url(#clip0_1_193)" fill="#BB9D60"><path d="M35.185 14.83a.657.657 0 01-.657-.656v-.656h1.313v1.313l-.656-.001zm-4.326 7.416a2.513 2.513 0 01-2.51-2.51 2.513 2.513 0 012.51-2.51 2.513 2.513 0 012.51 2.51 2.513 2.513 0 01-2.51 2.51zm-20.392 0a2.513 2.513 0 01-2.51-2.51 2.513 2.513 0 012.51-2.51 2.513 2.513 0 012.51 2.51 2.513 2.513 0 01-2.51 2.51zM27.113 9.897V6.102h5.156l.948 3.795h-6.104zm0-6.266h4.364c.703 0 1.275.571 1.275 1.274v.039h-5.64l.001-1.313zm7.297 6.291l-.958-3.832a.58.58 0 00.458-.567v-.618a2.436 2.436 0 00-2.433-2.433h-4.364V1.197c0-.66-.537-1.197-1.198-1.197H3.67c-.66 0-1.197.537-1.197 1.197v10.506a.58.58 0 001.158 0V1.197a.04.04 0 01.04-.038h22.245c.022 0 .039.017.039.038v10.506a.58.58 0 001.159 0v-.657h6.837c.84 0 1.555.553 1.8 1.313H33.95a.58.58 0 00-.58.58v1.235c0 1.001.815 1.816 1.816 1.816h.656v2.549h-1.515a3.675 3.675 0 00-3.467-2.472 3.675 3.675 0 00-3.468 2.472h-.278v-4.365a.58.58 0 10-1.16 0v4.365H13.935a3.675 3.675 0 00-3.467-2.472A3.675 3.675 0 007 18.539H3.67a.038.038 0 01-.015-.003.038.038 0 01-.024-.037v-1.274h2.51a.58.58 0 000-1.158H.58a.58.58 0 000 1.158h1.892V18.5c0 .66.537 1.197 1.197 1.197H6.8l-.001.039a3.673 3.673 0 003.669 3.669 3.674 3.674 0 003.669-3.67l-.001-.038H27.19l-.001.039a3.673 3.673 0 003.669 3.669 3.674 3.674 0 003.669-3.67l-.001-.038h1.894a.58.58 0 00.579-.58v-6.179a3.056 3.056 0 00-2.59-3.016h.001z"/><path d="M10.467 18.54a1.198 1.198 0 000 2.395 1.199 1.199 0 000-2.395zm20.39 0a1.198 1.198 0 000 2.395 1.199 1.199 0 000-2.395zm-6.797-2.47h-8.65a.58.58 0 000 1.159h8.65a.58.58 0 000-1.159zM9.235 13.6H1.819a.58.58 0 000 1.159h7.416a.58.58 0 000-1.159zM20.15 5.74a.58.58 0 00-.819 0l-5.152 5.152-2.68-2.68a.58.58 0 10-.82.819l3.09 3.09a.576.576 0 00.82 0l5.561-5.562a.58.58 0 000-.82v.001z"/></g><defs><clipPath id="clip0_1_193"><path fill="#fff" d="M0 0h37v24H0z"/></clipPath></defs></svg>
